X:649
T:High Road To Linton #1
C:Joe Buchanan's Scottish Tome - Page 197.1
I:197 1
Z:Carl Allison
R:Reel
L:1/8
M:4/4
K:A
e2 | "A"ceef a2 (ae) | "D"f2 (fe) "A"a2 (ae) | ceef a2 (ae) | "D"ef"A"ec "E7"B2 "A"A2 :|
"A7"cee=g "D"fddf | "A"ecce "E7"fBBf | "A7"cee=g "D"fddf | "A"ecac "E7"B2 "A"A2 :|
"A"a2 a2 (ef) a2 | "A"(ef)ae "D"fa"A"ef | a2 a2 ef ae | "D"fa"A"ec "E7"B2 "A"A2 :|
"A"c2 (ec) defd | "A"c2 (ec) "E7"BcdB | "A"c2 (ec) "D"defg | "D"af"A"ec "E7"B2 "A"A2 :|
